packages/components/src/assets/calendar.svg

<?xml version="1.0" encoding="UTF-8"?>
<svg enable-background="new 0 0 600 600" version="1.1" viewBox="0 0 600 600" xml:space="preserve" xmlns="http://www.w3.org/2000/svg">
<style type="text/css">
	.st0{fill:#B7C4CF;}
</style>

  <path class="st0" d="m558 101.6c-8.4-8.4-18.3-12.2-29-12.2h-41.2v-31.3c0-14.5-5.3-26.7-15.3-36.6-9.9-9.9-22.1-15.3-36.6-15.3h-20.6c-14.5 0-26.7 5.3-36.6 15.3-9.9 9.9-15.3 22.1-15.3 36.6v31.3h-124.4v-31.3c0-14.5-5.3-26.7-15.3-36.6s-22.1-15.3-36.6-15.3h-20.6c-14.5 0-26.7 5.3-36.6 15.3s-15.3 22.1-15.3 36.6v31.3h-41.2c-11.4 0-20.6 3.8-29 12.2s-12.2 17.6-12.2 29v415.2c0 11.4 3.8 20.6 12.2 29s17.6 12.2 29 12.2h456.4c11.4 0 20.6-3.8 29-12.2s12.2-18.3 12.2-29v-415.2c-0.8-10.6-4.6-20.6-13-29zm-153.4-42.7h41.2v73.3h-41.2v-73.3zm-248.8-0.8h41.2v73.3h-41.2v-73.3zm10 487.7h-93.2v-93.1h93.1v93.1zm0-113.7h-93.2v-103.8h93.1v103.8zm0-124.4h-93.2v-93.1h93.1v93.1zm124.4 238.1h-103.8v-93.1h103.8v93.1zm0-113.7h-103.8v-103.8h103.8v103.8zm0-124.4h-103.8v-93.1h103.8v93.1zm124.3 238.1h-103.7v-93.1h103.8v93.1zm0-113.7h-103.7v-103.8h103.8v103.8zm0-124.4h-103.7v-93.1h103.8v93.1zm114.5 238.1h-93.1v-93.1h93.1v93.1zm0-113.7h-93.1v-103.8h93.1v103.8zm0-124.4h-93.1v-93.1h93.1v93.1z"/>

</svg>

<?xml version="1.0" encoding="utf-8"?>
<!-- Generator: Adobe Illustrator 22.1.0, SVG Export Plug-In . SVG Version: 6.00 Build 0)  -->
<svg version="1.1" id="Layer_1" xmlns="http://www.w3.org/2000/svg" xmlns:xlink="http://www.w3.org/1999/xlink" x="0px" y="0px"
	 viewBox="0 0 600 600" style="enable-background:new 0 0 600 600;" xml:space="preserve">
<style type="text/css">
	.st0{fill:#B7C4CF;}
</style>
<g>
	<path class="st0" d="M558,101.6c-8.4-8.4-18.3-12.2-29-12.2h-41.2V58.1c0-14.5-5.3-26.7-15.3-36.6c-9.9-9.9-22.1-15.3-36.6-15.3
		h-20.6c-14.5,0-26.7,5.3-36.6,15.3c-9.9,9.9-15.3,22.1-15.3,36.6v31.3H239V58.1c0-14.5-5.3-26.7-15.3-36.6S201.6,6.2,187.1,6.2
		h-20.6c-14.5,0-26.7,5.3-36.6,15.3s-15.3,22.1-15.3,36.6v31.3H73.4c-11.4,0-20.6,3.8-29,12.2c-8.4,8.4-12.2,17.6-12.2,29v415.2
		c0,11.4,3.8,20.6,12.2,29c8.4,8.4,17.6,12.2,29,12.2h456.4c11.4,0,20.6-3.8,29-12.2c8.4-8.4,12.2-18.3,12.2-29V130.6
		C570.2,120,566.4,110,558,101.6z M404.6,58.9h41.2v73.3h-41.2V58.9z M155.8,58.1H197v73.3h-41.2V58.1z M165.8,545.8H72.6v-93.1
		h93.1V545.8z M165.8,432.1H72.6V328.3h93.1V432.1z M165.8,307.7H72.6v-93.1h93.1V307.7z M290.2,545.8H186.4v-93.1h103.8V545.8z
		 M290.2,432.1H186.4V328.3h103.8V432.1z M290.2,307.7H186.4v-93.1h103.8V307.7z M414.5,545.8H310.8v-93.1h103.8V545.8z
		 M414.5,432.1H310.8V328.3h103.8V432.1z M414.5,307.7H310.8v-93.1h103.8V307.7z M529,545.8h-93.1v-93.1H529V545.8z M529,432.1
		h-93.1V328.3H529V432.1z M529,307.7h-93.1v-93.1H529V307.7z"/>
</g>
</svg>
